**harm	**harte	**kern	**silbe	**kern	**silbe	**rhyme	**timestamp	**phrase	**leadinstrument
*M4/4	*M4/4	*ICvox	*	*ICvox	*	*	*	*	*
*	*	*VRlead	*	*VRbacking*VRharmonize	*	*	*	*	*
*	*	*Hstimme	*	*Nstimme	*	*	*	*	*
*C:	*C:	*C:	*	*C:	*	*	*	*	*
*	*	*M6/4	*	*M6/4	*	*	*	*	*
*	*	*clefG2	*	*clefG2	*	*	*	*	*
1r;	N	r;	.	r;	.	.	0	.	r
=1	=1	=1	=1	=1	=1	=1	=1	=1	=1
*>Letter>A	*>Letter>A	*>Letter>A	*>Letter>A	*>Letter>A	*>Letter>A	*>Letter>A	*>Letter>A	*>Letter>A	*>Letter>A
*>Label>Intro	*>Label>Intro	*>Label>Intro	*>Label>Intro	*>Label>Intro	*>Label>Intro	*>Label>Intro	*>Label>Intro	*>Label>Intro	*>Label>Intro
*M6/4	*M6/4	*	*	*	*	*	*M6/4	*M6/4	*M6/4
1.r	N	1.r	.	1.r	.	.	0.441	newline	drums
=2	=2	=2	=2	=2	=2	=2	=2	=2	=2
*M4/4	*M4/4	*M4/4	*	*M4/4	*	*	*M4/4	*M4/4	*M4/4
1IV	F:maj	1r	.	1r	.	.	3.418	newline	synth
=3	=3	=3	=3	=3	=3	=3	=3	=3	=3
2iii	E:min	1r	.	1r	.	.	5.515	.	synth
2vi	A:min	.	.	.	.	.	6.563	.	synth
=4	=4	=4	=4	=4	=4	=4	=4	=4	=4
1IV	F:maj	1r	.	1r	.	.	7.611	newline	synth
=5	=5	=5	=5	=5	=5	=5	=5	=5	=5
2iii	E:min	1r	.	1r	.	.	9.65	.	synth
2vi	A:min	.	.	.	.	.	10.67	.	synth
=6	=6	=6	=6	=6	=6	=6	=6	=6	=6
1IV	F:maj	1r	.	1r	.	.	11.69	newline	synth
=7	=7	=7	=7	=7	=7	=7	=7	=7	=7
2iii	E:min	1r	.	1r	.	.	13.702	.	synth
2vi	A:min	.	.	.	.	.	14.708	.	synth
=8	=8	=8	=8	=8	=8	=8	=8	=8	=8
1IV	F:maj	1r	.	1r	.	.	15.714	newline	synth
=9	=9	=9	=9	=9	=9	=9	=9	=9	=9
2iii	E:min	1r	.	1r	.	.	17.75	.	synth
2vi	A:min	.	.	.	.	.	18.768	.	synth
=10	=10	=10	=10	=10	=10	=10	=10	=10	=10
1IV	F:maj	1r	.	1r	.	.	19.786	newline	synth
=11	=11	=11	=11	=11	=11	=11	=11	=11	=11
2iii	E:min	1r	.	1r	.	.	21.83	.	synth
2vi	A:min	.	.	.	.	.	22.852	.	synth
=12	=12	=12	=12	=12	=12	=12	=12	=12	=12
1IV	F:maj	1r	.	1r	.	.	23.874	newline	synth
=13	=13	=13	=13	=13	=13	=13	=13	=13	=13
2iii	E:min	1r	.	1r	.	.	25.926	.	synth
2vi	A:min	.	.	.	.	.	26.951	.	synth
=14	=14	=14	=14	=14	=14	=14	=14	=14	=14
*>Letter>B	*>Letter>B	*>Letter>B	*>Letter>B	*>Letter>B	*>Letter>B	*>Letter>B	*>Letter>B	*>Letter>B	*>Letter>B
*>Label>Intro	*>Label>Intro	*>Label>Intro	*>Label>Intro	*>Label>Intro	*>Label>Intro	*>Label>Intro	*>Label>Intro	*>Label>Intro	*>Label>Intro
1ii	D:(11)	1r	.	1r	.	.	27.977	newline	synth
=15	=15	=15	=15	=15	=15	=15	=15	=15	=15
1I	C:(11)	1r	.	1r	.	.	30.006	.	synth
=16	=16	=16	=16	=16	=16	=16	=16	=16	=16
1ii	D:(11)	1r	.	1r	.	.	32.036	newline	synth
=17	=17	=17	=17	=17	=17	=17	=17	=17	=17
1I	C:(11)	1r	.	1r	.	.	34.079	.	synth
=18	=18	=18	=18	=18	=18	=18	=18	=18	=18
*>Label>>Verse	*>Label>>Verse	*>Label>>Verse	*>Label>>Verse	*>Label>>Verse	*>Label>>Verse	*>Label>>Verse	*>Label>>Verse	*>Label>>Verse	*>Label>>Verse
1ii	D:(11)	8r	.	1r	.	.	36.122	newline	voice
.	.	8d	You	.	.	.	.	.	.
.	.	8d	al-	.	.	.	.	.	.
.	.	8d	-ways	.	.	.	.	.	.
.	.	8d	want-	.	.	.	.	.	.
.	.	8d	-ed	.	.	.	.	.	.
.	.	8e	a	.	.	.	.	.	.
.	.	8d	lov-	.	.	A	.	.	.
=19	=19	=19	=19	=19	=19	=19	=19	=19	=19
1I	C:(11)	8c	-er	1r	.	.	38.126	.	voice
.	.	8r	.	.	.	.	.	.	.
.	.	4r	.	.	.	.	.	.	.
.	.	2r	.	.	.	.	.	.	.
=20	=20	=20	=20	=20	=20	=20	=20	=20	=20
1ii	D:(11)	8r	.	1r	.	.	40.13	newline	voice
.	.	8d	I	.	.	.	.	.	.
.	.	8d	on-	.	.	.	.	.	.
.	.	8d	-ly	.	.	.	.	.	.
.	.	8d	want-	.	.	.	.	.	.
.	.	8d	-ed	.	.	.	.	.	.
.	.	8e	a	.	.	.	.	.	.
.	.	8d	job	.	.	.	.	.	.
=21	=21	=21	=21	=21	=21	=21	=21	=21	=21
1I	C:(11)	8c	_	1r	.	.	42.166	.	voice
.	.	4r	.	.	.	.	.	.	.
.	.	8r	.	.	.	.	.	.	.
.	.	2r	.	.	.	.	.	.	.
=22	=22	=22	=22	=22	=22	=22	=22	=22	=22
1ii	D:(11)	8r	.	1r	.	.	44.202	newline	voice
.	.	8d	I've	.	.	.	.	.	.
.	.	8d	al-	.	.	.	.	.	.
.	.	8d	-ways	.	.	.	.	.	.
.	.	8d	worked	.	.	.	.	.	.
.	.	8d	for	.	.	.	.	.	.
.	.	8e	my	.	.	.	.	.	.
.	.	8d	liv-	.	.	.	.	.	.
=23	=23	=23	=23	=23	=23	=23	=23	=23	=23
1I	C:(11)	8c	-ing	1r	.	a	46.219	.	voice
.	.	8r	.	.	.	.	.	.	.
.	.	4r	.	.	.	.	.	.	.
.	.	2r	.	.	.	.	.	.	.
=24	=24	=24	=24	=24	=24	=24	=24	=24	=24
*>Letter>C	*>Letter>C	*>Letter>C	*>Letter>C	*>Letter>C	*>Letter>C	*>Letter>C	*>Letter>C	*>Letter>C	*>Letter>C
*>Label>Refrain	*>Label>Refrain	*>Label>Refrain	*>Label>Refrain	*>Label>Refrain	*>Label>Refrain	*>Label>Refrain	*>Label>Refrain	*>Label>Refrain	*>Label>Refrain
1-VII	B-:5	8r	.	8r	.	.	48.236	newline	voice
.	.	8B-	How'm	8B-	How'm	.	.	.	.
.	.	4B-	I	4B-	I	.	.	.	.
.	.	4B-	gon-	4B-	gon-	.	.	.	.
.	.	8B-	-na	8B-	-na	.	.	.	.
.	.	[8B-	get	[8B-	get	.	.	.	.
=25	=25	=25	=25	=25	=25	=25	=25	=25	=25
1I	C:5	8B-]	_	8B-]	_	.	50.279	.	voice
.	.	2c	through	2c	through	.	.	.	.
.	.	8r	.	8r	.	.	.	.	.
.	.	4r	.	4r	.	.	.	.	.
=26	=26	=26	=26	=26	=26	=26	=26	=26	=26
1-VII	B-:maj	8r	.	8r	.	.	52.323	.	voice
.	.	8B-	how'm	8d	how'm	.	.	.	.
.	.	4B-	I	4d	I	.	.	.	.
.	.	4B-	gon-	4d	gon-	.	.	.	.
.	.	8B-	-na	8d	-na	.	.	.	.
.	.	[8B-	get	[8d	get	.	.	.	.
=27	=27	=27	=27	=27	=27	=27	=27	=27	=27
1I	C:maj	8B-]	_	8d]	_	.	54.366	.	voice
.	.	2c	through	2e	through	.	.	.	.
.	.	8r	.	8r	.	.	.	.	.
.	.	4r	.	4r	.	.	.	.	.
=28	=28	=28	=28	=28	=28	=28	=28	=28	=28
*>Letter>B	*>Letter>B	*>Letter>B	*>Letter>B	*>Letter>B	*>Letter>B	*>Letter>B	*>Letter>B	*>Letter>B	*>Letter>B
*>Label>Verse	*>Label>Verse	*>Label>Verse	*>Label>Verse	*>Label>Verse	*>Label>Verse	*>Label>Verse	*>Label>Verse	*>Label>Verse	*>Label>Verse
1ii	D:(11)	8r	.	1r	.	.	56.41	newline	voice
.	.	8d	I	.	.	.	.	.	.
.	.	8d	came	.	.	.	.	.	.
.	.	8d	here	.	.	.	.	.	.
.	.	8d	look-	.	.	.	.	.	.
.	.	8d	-ing	.	.	.	.	.	.
.	.	8e	for	.	.	.	.	.	.
.	.	8d	mon-	.	.	(A	.	.	.
=29	=29	=29	=29	=29	=29	=29	=29	=29	=29
1I	C:(11)	8c	-ey	4r	.	a)	58.45	.	voice
.	.	8r	.	.	.	.	.	.	.
.	.	4r	.	8r	.	.	.	.	.
.	.	.	.	4c	Got	.	.	.	.
.	.	2r	.	.	.	.	.	.	.
.	.	.	.	8c	to	.	.	.	.
.	.	.	.	8A	have	.	.	.	.
.	.	.	.	8G	it	.	.	.	.
=30	=30	=30	=30	=30	=30	=30	=30	=30	=30
1ii	D:(11)	8r	.	1r	.	.	60.491	newline	voice
.	.	8d	and	.	.	.	.	.	.
.	.	8d	end	.	.	.	.	.	.
.	.	8d	up	.	.	.	.	.	.
.	.	8d	liv-	.	.	.	.	.	.
.	.	8d	-ing	.	.	.	.	.	.
.	.	8e	with	.	.	.	.	.	.
.	.	8d	love	.	.	A	.	.	.
=31	=31	=31	=31	=31	=31	=31	=31	=31	=31
1I	C:(11)	8c	_	2r	.	.	62.534	.	voice
.	.	4r	.	.	.	.	.	.	.
.	.	8r	.	.	.	.	.	.	.
.	.	2r	.	8G	oh	.	.	.	.
.	.	.	.	8A	_	.	.	.	.
.	.	.	.	8c	oh	.	.	.	.
.	.	.	.	8A	_	.	.	.	.
=32	=32	=32	=32	=32	=32	=32	=32	=32	=32
1ii	D:(11)	4r	.	4r	.	.	64.576	newline	voice
.	.	8d	now	8d	now	.	.	.	.
.	.	8d	you	8d	you	.	.	.	.
.	.	8d	left	8d	left	.	.	.	.
.	.	8d	me	8d	me	.	.	.	.
.	.	8e	with	8e	with	.	.	.	.
.	.	8d	no-	8d	no-	(A	.	.	.
=33	=33	=33	=33	=33	=33	=33	=33	=33	=33
1I	C:(11)	8c	-thing	8c	-thin	a)	66.581	.	voice
.	.	8r	.	8r	.	.	.	.	.
.	.	4r	.	4r	.	.	.	.	.
.	.	2r	.	8r	.	.	.	.	.
.	.	.	.	8c	can't	.	.	.	.
.	.	.	.	8A	take	.	.	.	.
.	.	.	.	8G	it	.	.	.	.
=34	=34	=34	=34	=34	=34	=34	=34	=34	=34
*>Letter>C	*>Letter>C	*>Letter>C	*>Letter>C	*>Letter>C	*>Letter>C	*>Letter>C	*>Letter>C	*>Letter>C	*>Letter>C
*>Label>Refrain	*>Label>Refrain	*>Label>Refrain	*>Label>Refrain	*>Label>Refrain	*>Label>Refrain	*>Label>Refrain	*>Label>Refrain	*>Label>Refrain	*>Label>Refrain
1-VII	B-:maj	8r	.	8r	.	.	68.586	newline	voice
.	.	8B-	How'm	8B-	How'm	.	.	.	.
.	.	4B-	I	4B-	I	.	.	.	.
.	.	4B-	gon-	4B-	gon-	.	.	.	.
.	.	8B-	-na	8B-	-na	.	.	.	.
.	.	[8B-	get	[8B-	get	.	.	.	.
=35	=35	=35	=35	=35	=35	=35	=35	=35	=35
1I	C:maj	8B-]	_	8B-]	_	.	70.632	.	voice
.	.	2c	through	2c	through	.	.	.	.
.	.	8r	.	8r	.	.	.	.	.
.	.	4r	.	4r	.	.	.	.	.
=36	=36	=36	=36	=36	=36	=36	=36	=36	=36
1-VII	B-:maj	8r	.	8r	.	.	72.678	.	voice
.	.	8B-	how'm	8d	how'm	.	.	.	.
.	.	4B-	I	4d	I	.	.	.	.
.	.	4B-	gon-	4d	gon-	.	.	.	.
.	.	8B-	-na	8d	-na	.	.	.	.
.	.	[8B-	get	[8d	get	.	.	.	.
=37	=37	=37	=37	=37	=37	=37	=37	=37	=37
1I	C:maj	8B-]	_	8d]	_	.	74.724	.	voice
.	.	2c	through	2e	through	.	.	.	.
.	.	8r	.	8r	.	.	.	.	.
.	.	4r	.	4r	.	.	.	.	.
=38	=38	=38	=38	=38	=38	=38	=38	=38	=38
*>Letter>A	*>Letter>A	*>Letter>A	*>Letter>A	*>Letter>A	*>Letter>A	*>Letter>A	*>Letter>A	*>Letter>A	*>Letter>A
*>Label>Chorus	*>Label>Chorus	*>Label>Chorus	*>Label>Chorus	*>Label>Chorus	*>Label>Chorus	*>Label>Chorus	*>Label>Chorus	*>Label>Chorus	*>Label>Chorus
1IV	F:maj	1r	.	1r	.	.	76.77	newline	voice
=39	=39	=39	=39	=39	=39	=39	=39	=39	=39
2iii	E:min	1r	.	1r	.	.	78.798	.	voice
2vi	A:min	.	.	.	.	.	79.812	.	voice
=40	=40	=40	=40	=40	=40	=40	=40	=40	=40
1IV	F:maj	1r	.	1r	.	.	80.826	newline	voice
=41	=41	=41	=41	=41	=41	=41	=41	=41	=41
2iii	E:min	1r	.	1r	.	.	82.842	.	voice
2vi	A:min	.	.	.	.	.	83.85	.	voice
=42	=42	=42	=42	=42	=42	=42	=42	=42	=42
1IV	F:maj	1r	.	1r	.	.	84.858	newline	voice
=43	=43	=43	=43	=43	=43	=43	=43	=43	=43
2iii	E:min	1r	.	1r	.	.	86.886	.	voice
2vi	A:min	.	.	.	.	.	87.9	.	voice
=44	=44	=44	=44	=44	=44	=44	=44	=44	=44
1IV	F:maj	1r	.	1r	.	.	88.915	newline	voice
=45	=45	=45	=45	=45	=45	=45	=45	=45	=45
2iii	E:min	1r	.	1r	.	.	90.968	.	voice
2vi	A:min	.	.	.	.	.	91.995	.	voice
=46	=46	=46	=46	=46	=46	=46	=46	=46	=46
1r	N	1r	.	1r	.	.	93.021	newline	voice
=47	=47	=47	=47	=47	=47	=47	=47	=47	=47
1r	N	2r	.	1r	.	.	95.06	.	voice
.	.	8c	Since	.	.	.	.	.	.
.	.	8d	you	.	.	.	.	.	.
.	.	8e	went	.	.	.	.	.	.
.	.	8f	a-	.	.	.	.	.	.
=48	=48	=48	=48	=48	=48	=48	=48	=48	=48
*>Letter>D	*>Letter>D	*>Letter>D	*>Letter>D	*>Letter>D	*>Letter>D	*>Letter>D	*>Letter>D	*>Letter>D	*>Letter>D
*>Label>Bridge	*>Label>Bridge	*>Label>Bridge	*>Label>Bridge	*>Label>Bridge	*>Label>Bridge	*>Label>Bridge	*>Label>Bridge	*>Label>Bridge	*>Label>Bridge
1I	C:maj	[2g	-way	1r	.	.	97.1	newline	voice
.	.	8g]	_	.	.	.	.	.	.
.	.	8a	I've	.	.	.	.	.	.
.	.	8e	been	.	.	.	.	.	.
.	.	8e	hang-	.	.	.	.	.	.
=49	=49	=49	=49	=49	=49	=49	=49	=49	=49
1ii	D:min	8f	_	1r	.	.	99.131	.	voice
.	.	8f	-ing	.	.	.	.	.	.
.	.	8e	a-	.	.	.	.	.	.
.	.	8d	-round	.	.	B	.	.	.
.	.	4c	_	.	.	.	.	.	.
.	.	8d	I've	.	.	.	.	.	.
.	.	8e	been	.	.	.	.	.	.
=50	=50	=50	=50	=50	=50	=50	=50	=50	=50
1ii	D:min	8f	won-	1r	.	.	101.163	.	voice
.	.	8g	-der-	.	.	.	.	.	.
.	.	8e	-ing	.	.	.	.	.	.
.	.	8d	why	.	.	.	.	.	.
.	.	4c	_	.	.	.	.	.	.
.	.	4r	.	.	.	.	.	.	.
=51	=51	=51	=51	=51	=51	=51	=51	=51	=51
1V	G:maj	8e	I'm	1r	.	.	103.194	.	voice
.	.	8g	feel-	.	.	.	.	.	.
.	.	8e	-ing	.	.	.	.	.	.
.	.	8d	down	.	.	B	.	.	.
.	.	8c	_	.	.	.	.	.	.
.	.	8c	You	.	.	.	.	.	.
.	.	8e	went	.	.	.	.	.	.
.	.	8f	a-	.	.	.	.	.	.
=52	=52	=52	=52	=52	=52	=52	=52	=52	=52
1I	C:maj	[2g	-way	1r	.	.	105.226	newline	voice
.	.	8g]	_	.	.	.	.	.	.
.	.	8e	it	.	.	.	.	.	.
.	.	8e	should	.	.	.	.	.	.
.	.	[8g	make	.	.	.	.	.	.
=53	=53	=53	=53	=53	=53	=53	=53	=53	=53
1ii	D:min	8g]	_	1r	.	.	107.256	.	voice
.	.	8g	me	.	.	.	.	.	.
.	.	8a	feel	.	.	.	.	.	.
.	.	8g	bet-	.	.	.	.	.	.
.	.	4f	-ter	.	.	.	.	.	.
.	.	8r	.	.	.	.	.	.	.
.	.	8A	but	.	.	.	.	.	.
=54	=54	=54	=54	=54	=54	=54	=54	=54	=54
1ii	D:min	4f	I	1r	.	.	109.285	.	voice
.	.	4e	don't	.	.	.	.	.	.
.	.	8d	know	.	.	.	.	.	.
.	.	8c	_	.	.	.	.	.	.
.	.	8c	oh	.	.	.	.	.	.
.	.	8B-	_	.	.	.	.	.	.
=55	=55	=55	=55	=55	=55	=55	=55	=55	=55
*>Letter>C	*>Letter>C	*>Letter>C	*>Letter>C	*>Letter>C	*>Letter>C	*>Letter>C	*>Letter>C	*>Letter>C	*>Letter>C
*>Label>Refrain	*>Label>Refrain	*>Label>Refrain	*>Label>Refrain	*>Label>Refrain	*>Label>Refrain	*>Label>Refrain	*>Label>Refrain	*>Label>Refrain	*>Label>Refrain
1-VII	B-:maj	8r	.	8r	.	.	111.314	->newline	voice
.	.	8d	How	8B-	How	.	.	.	.
.	.	4d	I'm	4B-	I'm	.	.	.	.
.	.	4d	gon-	4B-	gon-	.	.	.	.
.	.	8d	-na	8B-	-na	.	.	.	.
.	.	[8d	get	[8B-	get	.	.	.	.
=56	=56	=56	=56	=56	=56	=56	=56	=56	=56
1I	C:maj	8d]	_	8B-]	_	.	113.352	.	voice
.	.	2e	through	2c	through	.	.	.	.
.	.	8r	.	8r	.	.	.	.	.
.	.	4r	.	4r	.	.	.	.	.
=57	=57	=57	=57	=57	=57	=57	=57	=57	=57
1-VII	B-:maj	8r	.	8r	.	.	115.39	.	voice
.	.	8f	how	8d	how	.	.	.	.
.	.	4f	I'm	4d	I'm	.	.	.	.
.	.	4f	gon-	4d	gon-	.	.	.	.
.	.	8f	-na	8d	-na	.	.	.	.
.	.	[8f	get	[8d	get	.	.	.	.
=58	=58	=58	=58	=58	=58	=58	=58	=58	=58
1I	C:maj	8f]	_	8d]	_	.	117.428	.	voice
.	.	2g	through	2e	through	.	.	.	.
.	.	8r	.	8r	.	.	.	.	.
.	.	4r	.	4r	.	.	.	.	.
=59	=59	=59	=59	=59	=59	=59	=59	=59	=59
*>Letter>B	*>Letter>B	*>Letter>B	*>Letter>B	*>Letter>B	*>Letter>B	*>Letter>B	*>Letter>B	*>Letter>B	*>Letter>B
*>Label>Verse	*>Label>Verse	*>Label>Verse	*>Label>Verse	*>Label>Verse	*>Label>Verse	*>Label>Verse	*>Label>Verse	*>Label>Verse	*>Label>Verse
1I	C:sus2	8r	.	8r	.	.	119.466	newline	voice
.	.	8d	You	2..r	.	.	.	.	.
.	.	8d	al-	.	.	.	.	.	.
.	.	8d	-ways	.	.	.	.	.	.
.	.	8d	want-	.	.	.	.	.	.
.	.	8d	-ed	.	.	.	.	.	.
.	.	8e	me	.	.	.	.	.	.
.	.	8d	to	.	.	.	.	.	.
=60	=60	=60	=60	=60	=60	=60	=60	=60	=60
1I	C:(11)	4c	_	4r	.	.	121.51	.	voice
.	.	4r	.	8c	be	.	.	.	.
.	.	.	.	8G	some-	.	.	.	.
.	.	2r	.	8G	-thing	.	.	.	.
.	.	.	.	8c	I	.	.	.	.
.	.	.	.	8A	was-	(A	.	.	.
.	.	.	.	8G	-n't	a)	.	.	.
=61	=61	=61	=61	=61	=61	=61	=61	=61	=61
1I	C:sus2	8r	.	1r	.	.	123.554	newline	voice
.	.	8d	you	.	.	.	.	.	.
.	.	8d	al-	.	.	.	.	.	.
.	.	8d	-ways	.	.	.	.	.	.
.	.	8d	want-	.	.	.	.	.	.
.	.	8d	-ed	.	.	.	.	.	.
.	.	8e	too	.	.	.	.	.	.
.	.	8d	much	.	.	A	.	.	.
=62	=62	=62	=62	=62	=62	=62	=62	=62	=62
1I	C:(11)	8c	_	2r	.	.	125.606	.	voice
.	.	4r	.	.	.	.	.	.	.
.	.	8r	.	.	.	.	.	.	.
.	.	2r	.	8G	oh	.	.	.	.
.	.	.	.	8A	_	.	.	.	.
.	.	.	.	8c	oh	.	.	.	.
.	.	.	.	8A	_	.	.	.	.
=63	=63	=63	=63	=63	=63	=63	=63	=63	=63
1I	C:sus2	8r	.	8r	.	.	127.658	newline	voice
.	.	8d	now	8d	now	.	.	.	.
.	.	8d	I	8d	I	.	.	.	.
.	.	8d	can	8d	can	.	.	.	.
.	.	8d	do	8d	do	.	.	.	.
.	.	8d	what	8d	what	.	.	.	.
.	.	8e	I	8e	I	.	.	.	.
.	.	8d	want	8d	want	.	.	.	.
=64	=64	=64	=64	=64	=64	=64	=64	=64	=64
1I	C:(11)	8c	to	8c	_	.	129.654	.	voice
.	.	8r	.	8r	.	.	.	.	.
.	.	4r	.	4r	.	.	.	.	.
.	.	8r	.	8r	.	.	.	.	.
.	.	8g	for-	8c	for-	.	.	.	.
.	.	8g	-e-	8A	-e-	.	.	.	.
.	.	8g	-ver	8G	-ver	.	.	.	.
=65	=65	=65	=65	=65	=65	=65	=65	=65	=65
*>Letter>C	*>Letter>C	*>Letter>C	*>Letter>C	*>Letter>C	*>Letter>C	*>Letter>C	*>Letter>C	*>Letter>C	*>Letter>C
*>Label>Refrain	*>Label>Refrain	*>Label>Refrain	*>Label>Refrain	*>Label>Refrain	*>Label>Refrain	*>Label>Refrain	*>Label>Refrain	*>Label>Refrain	*>Label>Refrain
1-VIIe	B-:5/2	8r	.	8r	.	.	131.65	newline	voice
.	.	8B-	How'm	8B-	How'm	.	.	.	.
.	.	4B-	I	4B-	I	.	.	.	.
.	.	4B-	gon-	4B-	gon-	.	.	.	.
.	.	8B-	-na	8B-	-na	.	.	.	.
.	.	[8B-	get	[8B-	get	.	.	.	.
=66	=66	=66	=66	=66	=66	=66	=66	=66	=66
1I	C:5	8B-]	_	8B-]	_	.	133.694	.	voice
.	.	2c	through	2c	through	.	.	.	.
.	.	8r	.	8r	.	.	.	.	.
.	.	4r	.	4r	.	.	.	.	.
=67	=67	=67	=67	=67	=67	=67	=67	=67	=67
1-VIIe	B-:maj/2	8r	.	8r	.	.	135.738	.	voice
.	.	8B-	how'm	8d	how'm	.	.	.	.
.	.	4B-	I	4d	I	.	.	.	.
.	.	4B-	gon-	4d	gon-	.	.	.	.
.	.	8B-	-na	8d	-na	.	.	.	.
.	.	[8B-	get	[8d	get	.	.	.	.
=68	=68	=68	=68	=68	=68	=68	=68	=68	=68
*M2/4	*M2/4	*M2/4	*	*M2/4	*	*	*M2/4	*M2/4	*M2/4
2I	C:maj	8B-]	_	8d]	_	.	137.782	.	voice
.	.	4.c	through	4e	through	.	.	.	.
.	.	.	.	8r	.	.	.	.	.
=69	=69	=69	=69	=69	=69	=69	=69	=69	=69
*>Letter>A	*>Letter>A	*>Letter>A	*>Letter>A	*>Letter>A	*>Letter>A	*>Letter>A	*>Letter>A	*>Letter>A	*>Letter>A
*>Label>Chorus	*>Label>Chorus	*>Label>Chorus	*>Label>Chorus	*>Label>Chorus	*>Label>Chorus	*>Label>Chorus	*>Label>Chorus	*>Label>Chorus	*>Label>Chorus
*M4/4	*M4/4	*	*	*	*	*	*M4/4	*M4/4	*M4/4
1IV	F:maj	1r	.	1r	.	.	138.804	newline	voice
=70	=70	=70	=70	=70	=70	=70	=70	=70	=70
2iii	E:min	1r	.	1r	.	.	140.842	.	voice
2vi	A:min	.	.	.	.	.	141.861	.	voice
=71	=71	=71	=71	=71	=71	=71	=71	=71	=71
1IV	F:maj	1r	.	1r	.	.	142.881	newline	voice
=72	=72	=72	=72	=72	=72	=72	=72	=72	=72
2iii	E:min	1r	.	1r	.	.	144.894	.	voice
2vi	A:min	.	.	.	.	.	145.901	.	voice
=73	=73	=73	=73	=73	=73	=73	=73	=73	=73
1IV	F:maj	1r	.	1r	.	.	146.907	newline	voice
=74	=74	=74	=74	=74	=74	=74	=74	=74	=74
2iii	E:min	1r	.	1r	.	.	148.966	.	voice
2vi	A:min	.	.	.	.	.	149.996	.	voice
=75	=75	=75	=75	=75	=75	=75	=75	=75	=75
1IV	F:maj	1r	.	1r	.	.	151.025	newline	voice
=76	=76	=76	=76	=76	=76	=76	=76	=76	=76
2iii	E:min	1r	.	1r	.	.	153.063	.	voice
2vi	A:min	.	.	.	.	.	154.082	.	voice
=77	=77	=77	=77	=77	=77	=77	=77	=77	=77
1r	N	1r	.	1r	.	.	155.1	newline	voice
=78	=78	=78	=78	=78	=78	=78	=78	=78	=78
1r	N	2r	.	1r	.	.	157.108	.	voice
.	.	8c	Since	.	.	.	.	.	.
.	.	8d	you	.	.	.	.	.	.
.	.	8e	went	.	.	.	.	.	.
.	.	8f	a-	.	.	.	.	.	.
=79	=79	=79	=79	=79	=79	=79	=79	=79	=79
*>Letter>D	*>Letter>D	*>Letter>D	*>Letter>D	*>Letter>D	*>Letter>D	*>Letter>D	*>Letter>D	*>Letter>D	*>Letter>D
*>Label>Bridge	*>Label>Bridge	*>Label>Bridge	*>Label>Bridge	*>Label>Bridge	*>Label>Bridge	*>Label>Bridge	*>Label>Bridge	*>Label>Bridge	*>Label>Bridge
1I	C:maj	8g	-way	1r	.	.	159.116	newline	voice
.	.	4e	_	.	.	.	.	.	.
.	.	8g	I've	.	.	.	.	.	.
.	.	8a	_	.	.	.	.	.	.
.	.	4e	been	.	.	.	.	.	.
.	.	8e	hang-	.	.	.	.	.	.
=80	=80	=80	=80	=80	=80	=80	=80	=80	=80
1ii	D:min	8f	_	1r	.	.	161.142	.	voice
.	.	8f	-ing	.	.	.	.	.	.
.	.	8e	a-	.	.	.	.	.	.
.	.	8d	-round	.	.	B	.	.	.
.	.	4c	_	.	.	.	.	.	.
.	.	8d	I've	.	.	.	.	.	.
.	.	8e	been	.	.	.	.	.	.
=81	=81	=81	=81	=81	=81	=81	=81	=81	=81
1ii	D:min	8f	wond-	1r	.	.	163.168	.	voice
.	.	8g	-er-	.	.	.	.	.	.
.	.	8e	-ing	.	.	.	.	.	.
.	.	8d	why	.	.	.	.	.	.
.	.	4c	_	.	.	.	.	.	.
.	.	8r	.	.	.	.	.	.	.
.	.	[8cc	I'm	.	.	.	.	.	.
=82	=82	=82	=82	=82	=82	=82	=82	=82	=82
1V	G:maj	8cc]	_	1r	.	.	165.193	.	voice
.	.	8cc	feel-	.	.	.	.	.	.
.	.	8cc	-ing	.	.	.	.	.	.
.	.	16b	down	.	.	B	.	.	.
.	.	16a	_	.	.	.	.	.	.
.	.	8g	_	.	.	.	.	.	.
.	.	8b-	You	.	.	.	.	.	.
.	.	8a	went	.	.	.	.	.	.
.	.	8g	a-	.	.	.	.	.	.
=83	=83	=83	=83	=83	=83	=83	=83	=83	=83
1I	C:maj	8g	-way	1r	.	.	167.219	newline	voice
.	.	4.e	_	.	.	.	.	.	.
.	.	8r	.	.	.	.	.	.	.
.	.	8g	it	.	.	.	.	.	.
.	.	8a	should	.	.	.	.	.	.
.	.	[8cc	make	.	.	.	.	.	.
=84	=84	=84	=84	=84	=84	=84	=84	=84	=84
1ii	D:min	8cc]	_	1r	.	.	169.293	.	voice
.	.	8dd	me	.	.	.	.	.	.
.	.	8ee	feel	.	.	.	.	.	.
.	.	4dd	bet-	.	.	.	.	.	.
.	.	4cc	-ter	.	.	.	.	.	.
.	.	8A	but	.	.	.	.	.	.
=85	=85	=85	=85	=85	=85	=85	=85	=85	=85
1ii	D:min	4f	I	1r	.	.	171.367	.	voice
.	.	4e	don't	.	.	.	.	.	.
.	.	8d	know	.	.	.	.	.	.
.	.	8c	_	.	.	.	.	.	.
.	.	8c	oh	.	.	.	.	.	.
.	.	[8B-	_	.	.	.	.	.	.
=86	=86	=86	=86	=86	=86	=86	=86	=86	=86
*>Letter>C	*>Letter>C	*>Letter>C	*>Letter>C	*>Letter>C	*>Letter>C	*>Letter>C	*>Letter>C	*>Letter>C	*>Letter>C
*>Label>Refrain	*>Label>Refrain	*>Label>Refrain	*>Label>Refrain	*>Label>Refrain	*>Label>Refrain	*>Label>Refrain	*>Label>Refrain	*>Label>Refrain	*>Label>Refrain
1-VII	B-:maj	8B-]	_	8r	.	.	173.442	->newline	voice
.	.	8d	How	8B-	How	.	.	.	.
.	.	4d	I'm	4B-	I'm	.	.	.	.
.	.	4d	gon-	4B-	gon-	.	.	.	.
.	.	8d	-na	8B-	-na	.	.	.	.
.	.	[8d	get	[8B-	get	.	.	.	.
=87	=87	=87	=87	=87	=87	=87	=87	=87	=87
1I	C:maj	8d]	_	8B-]	_	.	175.464	.	voice
.	.	2e	through	2c	through	.	.	.	.
.	.	8r	.	8r	.	.	.	.	.
.	.	4r	.	4r	.	.	.	.	.
=88	=88	=88	=88	=88	=88	=88	=88	=88	=88
1-VII	B-:maj	8r	.	8r	.	.	177.487	.	voice
.	.	8f	_	8d	how	.	.	.	.
.	.	4f	_	4d	I'm	.	.	.	.
.	.	4f	_	4d	gon-	.	.	.	.
.	.	8f	_	8d	-na	.	.	.	.
.	.	[8f	_	[8d	get	.	.	.	.
=89	=89	=89	=89	=89	=89	=89	=89	=89	=89
1I	C:maj	8f]	_	8d]	_	.	179.509	.	voice
.	.	2g	_	2e	through	.	.	.	.
.	.	8r	.	8r	.	.	.	.	.
.	.	4r	.	4r	.	.	.	.	.
=90	=90	=90	=90	=90	=90	=90	=90	=90	=90
1-VIIe	B-:maj/2	8r	.	8r	.	.	181.532	newline	voice
.	.	8d	_	8B-	how	.	.	.	.
.	.	4d	_	4B-	I'm	.	.	.	.
.	.	4d	_	4B-	gon-	.	.	.	.
.	.	8d	_	8B-	-na	.	.	.	.
.	.	[8d	_	[8B-	get	.	.	.	.
=91	=91	=91	=91	=91	=91	=91	=91	=91	=91
1I	C:maj	8d]	_	8B-]	_	.	183.55	.	voice
.	.	2e	_	2c	through	.	.	.	.
.	.	8r	.	8r	.	.	.	.	.
.	.	4r	.	4r	.	.	.	.	.
=92	=92	=92	=92	=92	=92	=92	=92	=92	=92
1-VIIe	B-:maj/2	8r	.	8r	.	.	185.568	.	voice
.	.	8f	how	8d	how	.	.	.	.
.	.	4f	I'm	4d	I'm	.	.	.	.
.	.	4f	gon-	4d	gon-	.	.	.	.
.	.	8f	-na	8d	-na	.	.	.	.
.	.	[8f	get	[8d	get	.	.	.	.
=93	=93	=93	=93	=93	=93	=93	=93	=93	=93
1I	C:maj	8f]	_	8d]	_	.	187.586	.	voice
.	.	2g	through	2e	through	.	.	.	.
.	.	8r	.	8r	.	.	.	.	.
.	.	4r	.	4r	.	.	.	.	.
=94	=94	=94	=94	=94	=94	=94	=94	=94	=94
1-VIIe	B-:maj/2	8r	.	8r	.	.	189.604	newline	voice
.	.	8d	how	8B-	how	.	.	.	.
.	.	4d	I'm	4B-	I'm	.	.	.	.
.	.	4d	gon-	4B-	gon-	.	.	.	.
.	.	8d	-na	8B-	-na	.	.	.	.
.	.	[8d	get	[8B-	get	.	.	.	.
=95	=95	=95	=95	=95	=95	=95	=95	=95	=95
1I	C:maj	8d]	_	8B-]	_	.	191.65	.	voice
.	.	2e	through	2c	through	.	.	.	.
.	.	8r	.	8r	.	.	.	.	.
.	.	4r	.	4r	.	.	.	.	.
=96	=96	=96	=96	=96	=96	=96	=96	=96	=96
1-VIIe	B-:maj/2	8r	.	8r	.	.	193.696	.	voice
.	.	8f	how	8d	how	.	.	.	.
.	.	4f	I'm	4d	I'm	.	.	.	.
.	.	4f	gon-	4d	gon-	.	.	.	.
.	.	8f	-na	8d	-na	.	.	.	.
.	.	[8f	get	[8d	get	.	.	.	.
=97	=97	=97	=97	=97	=97	=97	=97	=97	=97
1I	C:maj	8f]	_	8d]	_	.	195.742	.	voice
.	.	2g	through	2e	through	.	.	.	.
.	.	8r	.	8r	.	.	.	.	.
.	.	4r	.	4r	.	.	.	.	.
=98	=98	=98	=98	=98	=98	=98	=98	=98	=98
*>Letter>A	*>Letter>A	*>Letter>A	*>Letter>A	*>Letter>A	*>Letter>A	*>Letter>A	*>Letter>A	*>Letter>A	*>Letter>A
*>Label>Outro	*>Label>Outro	*>Label>Outro	*>Label>Outro	*>Label>Outro	*>Label>Outro	*>Label>Outro	*>Label>Outro	*>Label>Outro	*>Label>Outro
1IV	F:maj	1r	.	1r	.	.	197.788	newline	voice
=99	=99	=99	=99	=99	=99	=99	=99	=99	=99
2iii	E:min	1r	.	1r	.	.	199.776	.	voice
2vi	A:min	.	.	.	.	.	200.769	.	voice
=100	=100	=100	=100	=100	=100	=100	=100	=100	=100
1IV	F:maj	1r	.	1r	.	.	201.763	newline	voice
=101	=101	=101	=101	=101	=101	=101	=101	=101	=101
2iii	E:min	1r	.	1r	.	.	203.84	.	voice
2vi	A:min	.	.	.	.	.	204.878	.	voice
=102	=102	=102	=102	=102	=102	=102	=102	=102	=102
1IV	F:maj	1r	.	1r	.	.	205.916	newline	voice
=103	=103	=103	=103	=103	=103	=103	=103	=103	=103
2iii	E:min	1r	.	1r	.	.	207.98	.	voice
2vi	A:min	.	.	.	.	.	209.011	.	voice
=104	=104	=104	=104	=104	=104	=104	=104	=104	=104
1IV	F:maj	1r	.	1r	.	.	210.043	newline	voice
=105	=105	=105	=105	=105	=105	=105	=105	=105	=105
2iii	E:min	1r	.	1r	.	.	212.055	.	voice
2vi	A:min	.	.	.	.	.	213.061	.	voice
=106	=106	=106	=106	=106	=106	=106	=106	=106	=106
1IV	F:maj	1r	.	1r	.	.	214.067	newline	voice
=107	=107	=107	=107	=107	=107	=107	=107	=107	=107
2iii	E:min	1r	.	1r	.	.	216.098	.	voice
2vi	A:min	.	.	.	.	.	217.113	.	voice
=108	=108	=108	=108	=108	=108	=108	=108	=108	=108
1IV	F:maj	1r	.	1r	.	.	218.128	newline	voice
=109	=109	=109	=109	=109	=109	=109	=109	=109	=109
2iii	E:min	1r	.	1r	.	.	220.15	.	voice
2vi	A:min	.	.	.	.	.	221.161	.	voice
=110	=110	=110	=110	=110	=110	=110	=110	=110	=110
1IV	F:maj	1r	.	1r	.	.	222.172	newline	voice
=111	=111	=111	=111	=111	=111	=111	=111	=111	=111
2iii	E:min	1r	.	1r	.	.	224.2	.	voice
2vi	A:min	.	.	.	.	.	225.214	.	voice
=112	=112	=112	=112	=112	=112	=112	=112	=112	=112
1IV	F:maj	1r	.	1r	.	.	226.228	newline	voice
=113	=113	=113	=113	=113	=113	=113	=113	=113	=113
2iii	E:min	1r	.	1r	.	.	228.296	.	voice
2vi	A:min	.	.	.	.	.	229.33	.	voice
=114	=114	=114	=114	=114	=114	=114	=114	=114	=114
1IV	F:maj	1r	.	1r	.	.	230.364	newline	voice
=115	=115	=115	=115	=115	=115	=115	=115	=115	=115
2iii	E:min	1r	.	1r	.	.	232.356	.	voice
2vi	A:min	.	.	.	.	.	233.352	.	voice
=116	=116	=116	=116	=116	=116	=116	=116	=116	=116
1IV	F:maj	1r	.	1r	.	.	234.348	newline	voice
=117	=117	=117	=117	=117	=117	=117	=117	=117	=117
2iii	E:min	1r	.	1r	.	.	236.404	.	voice
2vi	A:min	.	.	.	.	.	237.432	.	voice
=118	=118	=118	=118	=118	=118	=118	=118	=118	=118
1IV	F:maj	1r	.	1r	.	.	238.46	newline	voice
=119	=119	=119	=119	=119	=119	=119	=119	=119	=119
2iii	E:min	1r	.	1r	.	.	240.484	.	voice
2vi	A:min	.	.	.	.	.	241.496	.	voice
=120	=120	=120	=120	=120	=120	=120	=120	=120	=120
*>Label>>Fadeout	*>Label>>Fadeout	*>Label>>Fadeout	*>Label>>Fadeout	*>Label>>Fadeout	*>Label>>Fadeout	*>Label>>Fadeout	*>Label>>Fadeout	*>Label>>Fadeout	*>Label>>Fadeout
1IV	F:maj	1r	.	1r	.	.	242.507	newline	voice
=121	=121	=121	=121	=121	=121	=121	=121	=121	=121
2iii	E:min	1r	.	1r	.	.	244.547	.	voice
2vi	A:min	.	.	.	.	.	245.566	.	voice
1r;	N	r;	.	r;	.	.	256.781	.	r
1r;	N	r;	.	r;	.	.	259.952	.	r
*-	*-	*-	*-	*-	*-	*-	*-	*-	*-
!!!BillboardChartDate: 1988/02/20
!!!BillboardPeak: 2
!!!BillboardWeeksOnChart: 12
!!!COC: Pet Shop Boys
!!!ENC: Nathaniel Condit-Schultz
!!!EST: Awating manual error checking and editing.
!!!OTL: What Have I Done To Deserve This?
!!!RDF**harte: Chris Harte's syntax, used by MIREX
!!!RDF**harmony: **recip + pitch class of root + harmonic quality
!!!RDF**leadinstrument: original McGill primary instrumentation annotation
!!!RDF**phrase: newline = linebreak in original McGill transcription
!!!RDF**timestamp: McGill audio timestamp in seconds
!!!RDT: 2017/01/12/
!!!SampleActualRank: 2
!!!SampleID#: 0648
!!!SampleTargetRank: 3
!!!MBID: 287ac95b-da73-4a30-a14e-2b7262479d52
